assets/10_hearts.svg

<svg width="822" height="1122" fill="none" xmlns="http://www.w3.org/2000/svg"><rect width="822" height="1122" rx="50" fill="#F1F7EE"/><path d="M176.763 1053.4c0-6.4.933-12.03 2.8-16.9 1.933-4.87 4.467-8.63 7.6-11.3 6.133-5.2 13.067-7.8 20.8-7.8 7.8 0 14.8 1.7 21 5.1.867.47 1.3 1.13 1.3 2v12.9c0 1-.5 1.5-1.5 1.5h-5.6c-1 0-1.467-.5-1.4-1.5l.3-7c-4.133-2.8-8.833-4.2-14.1-4.2-12.8 0-19.2 8.53-19.2 25.6 0 5.33.633 10 1.9 14 1.267 3.93 3.5 7.2 6.7 9.8 3.2 2.6 7.467 3.9 12.8 3.9 5.333 0 9.333-1.07 12-3.2l-.4-7c-.067-1 .4-1.5 1.4-1.5h5.7c1 0 1.5.5 1.5 1.5v12.7c0 .93-.333 1.57-1 1.9-5.867 2.87-12.567 4.3-20.1 4.3-10.933 0-19.1-3.1-24.5-9.3-5.333-6.2-8-14.7-8-25.5Zm91.391 3.9v-3.5c0-4.73-1.334-7.7-4-8.9-1.267-.53-3.1-.8-5.5-.8-4.534 0-7.267 2.13-8.2 6.4-.2 1-.7 1.5-1.5 1.5h-6.4c-1.067 0-1.534-.5-1.4-1.5.266-4.87 2.233-8.43 5.9-10.7 3.666-2.27 8.333-3.4 14-3.4 11.933 0 17.9 5.47 17.9 16.4v26.3h4.3c1 0 1.5.5 1.5 1.5v4.9c0 1-.5 1.5-1.5 1.5h-11.8c-.867 0-1.367-.5-1.5-1.5l-.7-4.6c-3.6 4.87-8.8 7.3-15.6 7.3-4.267 0-7.8-1.1-10.6-3.3-2.8-2.27-4.2-5.87-4.2-10.8 0-6.47 2.7-10.9 8.1-13.3 4.466-2.07 9.8-3.2 16-3.4 1.266 0 3-.03 5.2-.1Zm.2 14.6v-7.7c-6.4 0-10.334.3-11.8.9-1.467.6-2.767 1.2-3.9 1.8-2.134 1.13-3.2 3.2-3.2 6.2 0 4.6 2.633 6.9 7.9 6.9 3.466 0 6.166-.8 8.1-2.4 1.933-1.67 2.9-3.57 2.9-5.7Zm37.388-26.2v25.2c0 3.13.4 5.4 1.2 6.8.8 1.4 2.3 2.1 4.5 2.1s4.333-.47 6.4-1.4c.733-.27 1.266 0 1.6.8l1.8 4.6c.066.2.1.5.1.9 0 .33-.334.7-1 1.1-3.2 1.6-7 2.4-11.4 2.4-5.934 0-9.834-1.53-11.7-4.6-1.334-2-2.1-3.93-2.3-5.8-.267-2.53-.4-5.2-.4-8v-24.1h-5.7c-1 0-1.5-.5-1.5-1.5v-5.2c0-1 .5-1.5 1.5-1.5h5.7V1024c0-1 .5-1.5 1.5-1.5h8.2c1 0 1.5.5 1.5 1.5v13.5h10.1c1 0 1.5.5 1.5 1.5v5.2c0 1-.5 1.5-1.5 1.5h-10.1Zm43.514 42.5c-7.933 0-13.767-2.3-17.5-6.9-3.667-4.67-5.5-10.8-5.5-18.4 0-7.67 1.967-14 5.9-19 3.933-5 9.6-7.5 17-7.5 3.667 0 6.8.7 9.4 2.1 2.667 1.33 4.7 3.17 6.1 5.5 2.667 4.53 4 9.77 4 15.7 0 2.8-.133 4.33-.4 4.6-.267.27-.767.4-1.5.4h-29.4c.333 4.8 1.5 8.53 3.5 11.2 2.067 2.6 5.6 3.9 10.6 3.9 3.667 0 7.433-.87 11.3-2.6.933-.47 1.6-.2 2 .8l1.9 4.6c.333.8.033 1.47-.9 2-4.4 2.4-9.9 3.6-16.5 3.6Zm-11.9-30.9h20.8c.133-8.33-3.133-12.5-9.8-12.5-3.933 0-6.733 1.27-8.4 3.8-1.6 2.47-2.467 5.37-2.6 8.7Zm83.326-11.6v35.5c0 4.27-.167 8.23-.5 11.9-.534 5.67-2.634 10.07-6.3 13.2-3.6 3.13-8.734 4.7-15.4 4.7-6.667 0-12.267-1-16.8-3-.8-.33-1.067-1-.8-2l1.8-5.3c.266-.93.933-1.2 2-.8 4.066 1.67 8.166 2.5 12.3 2.5 4.2 0 7.333-1 9.4-3 2.066-2 3.1-5.53 3.1-10.6v-7.8c-2.934 4.8-7.667 7.2-14.2 7.2-6.534 0-11.534-2.1-15-6.3-3.4-4.2-5.1-10.57-5.1-19.1 0-8.6 2-15.13 6-19.6 4.066-4.53 9.133-6.8 15.2-6.8 6.133 0 11.066 2.17 14.8 6.5l1-3.9c.333-1 .933-1.5 1.8-1.5h12.2c1 0 1.5.5 1.5 1.5v5.2c0 1-.5 1.5-1.5 1.5h-5.5Zm-11.2 22.6v-17.8c-.267-.4-.7-.9-1.3-1.5-.534-.6-1.767-1.37-3.7-2.3-1.867-1-3.9-1.5-6.1-1.5-3.534 0-6.4 1.33-8.6 4-2.2 2.6-3.3 6.8-3.3 12.6s.8 10.23 2.4 13.3c1.6 3 4.7 4.5 9.3 4.5 2.933 0 5.533-1.03 7.8-3.1 2.333-2.07 3.5-4.8 3.5-8.2Zm22.731-5.3c0-5 .767-9.33 2.3-13s3.533-6.43 6-8.3c4.733-3.53 9.867-5.3 15.4-5.3 4.067 0 7.5.63 10.3 1.9 2.8 1.27 4.967 2.73 6.5 4.4 1.6 1.67 2.933 4.07 4 7.2 1.133 3.13 1.7 6.8 1.7 11 0 8.93-2.267 15.73-6.8 20.4-4.467 4.6-10.2 6.9-17.2 6.9s-12.467-2.1-16.4-6.3c-3.867-4.27-5.8-10.57-5.8-18.9Zm23 17c4 0 6.9-1.47 8.7-4.4 1.867-3 2.8-7.43 2.8-13.3 0-5.87-.933-10.27-2.8-13.2-1.8-3-4.767-4.5-8.9-4.5-7.667 0-11.5 5.4-11.5 16.2 0 12.8 3.9 19.2 11.7 19.2Zm46.723-33.9c1.133-2.67 2.966-4.93 5.5-6.8 2.533-1.93 5.3-2.9 8.3-2.9 3 0 5.3.27 6.9.8.8.27 1.2.87 1.2 1.8v13.5c0 1-.5 1.5-1.5 1.5h-6.5c-1 0-1.467-.5-1.4-1.5l.4-5.8c-.334-.07-.9-.1-1.7-.1-3.067 0-5.6 1.27-7.6 3.8-2 2.47-3 5.8-3 10v18.7h11c1 0 1.5.5 1.5 1.5v4.9c0 1-.5 1.5-1.5 1.5h-27.5c-1 0-1.5-.5-1.5-1.5v-4.9c0-1 .5-1.5 1.5-1.5h5.3v-33.4h-5.4c-1 0-1.5-.5-1.5-1.5v-5.2c0-1 .5-1.5 1.5-1.5h13.2c.933 0 1.5.5 1.7 1.5l1.1 7.1Zm45.717 33h6.3c1 0 1.5.5 1.5 1.5v4.9c0 1-.5 1.5-1.5 1.5h-23.8c-1 0-1.5-.5-1.5-1.5v-4.9c0-1 .5-1.5 1.5-1.5h6.3v-33.4h-5.4c-1 0-1.5-.5-1.5-1.5v-5.2c0-1 .5-1.5 1.5-1.5h15.1c1 0 1.5.5 1.5 1.5v40.1Zm-12.1-50.5c-1.267-1.33-1.9-3.03-1.9-5.1s.633-3.77 1.9-5.1c1.333-1.4 3.066-2.1 5.2-2.1 2.2 0 3.933.7 5.2 2.1 1.333 1.33 2 3.03 2 5.1s-.667 3.77-2 5.1c-1.334 1.33-3.1 2-5.3 2-2.134 0-3.834-.67-5.1-2Zm47.394 59.6c-7.933 0-13.766-2.3-17.5-6.9-3.666-4.67-5.5-10.8-5.5-18.4 0-7.67 1.967-14 5.9-19 3.934-5 9.6-7.5 17-7.5 3.667 0 6.8.7 9.4 2.1 2.667 1.33 4.7 3.17 6.1 5.5 2.667 4.53 4 9.77 4 15.7 0 2.8-.133 4.33-.4 4.6-.266.27-.766.4-1.5.4h-29.4c.334 4.8 1.5 8.53 3.5 11.2 2.067 2.6 5.6 3.9 10.6 3.9 3.667 0 7.434-.87 11.3-2.6.934-.47 1.6-.2 2 .8l1.9 4.6c.334.8.034 1.47-.9 2-4.4 2.4-9.9 3.6-16.5 3.6Zm-11.9-30.9h20.8c.134-8.33-3.133-12.5-9.8-12.5-3.933 0-6.733 1.27-8.4 3.8-1.6 2.47-2.466 5.37-2.6 8.7Zm38.949-5.5c0-4.4 1.7-8.07 5.1-11 3.4-2.93 7.7-4.4 12.9-4.4s9.7.6 13.5 1.8c.934.27 1.4.87 1.4 1.8v10.6c0 1-.5 1.5-1.5 1.5h-5.8c-1.066 0-1.5-.5-1.3-1.5l.5-5.1c-2-1.07-4.2-1.6-6.6-1.6-5.333 0-8 1.87-8 5.6 0 1.93.867 3.47 2.6 4.6 1.734 1.13 3.834 2.07 6.3 2.8 2.467.67 4.934 1.47 7.4 2.4 2.534.87 4.667 2.4 6.4 4.6 1.734 2.13 2.6 4.87 2.6 8.2 0 5.07-1.766 9.03-5.3 11.9-3.533 2.8-8.5 4.2-14.9 4.2-4.466 0-9.166-.67-14.1-2-.866-.27-1.3-.9-1.3-1.9v-10.6c0-1 .5-1.5 1.5-1.5h5.8c1 0 1.467.5 1.4 1.5l-.3 5.2c1.8 1.33 4.367 2 7.7 2 5.934 0 8.9-2.1 8.9-6.3 0-2.13-.866-3.8-2.6-5-1.666-1.27-3.733-2.23-6.2-2.9a184.3 184.3 0 0 1-7.3-2.2c-2.466-.87-4.566-2.33-6.3-4.4-1.666-2.13-2.5-4.9-2.5-8.3ZM66.944 103.7h50.4c2.2 0 3.7.4 4.5 1.2.8.8 1.2 2.3 1.2 4.5v123.9h20.7c2.2-.2 3.7.1 4.5.9.8.8 1.2 2.3 1.2 4.5v12.6c0 2.2-.4 3.7-1.2 4.5-.8.8-2.3 1.2-4.5 1.2h-75c-2.2 0-3.7-.4-4.5-1.2-.8-.8-1.2-2.3-1.2-4.5v-12.6c0-2.2.4-3.7 1.2-4.5.8-.8 2.3-1.1 4.5-.9h20.7V127.4l-22.5 1.2c-2.2.2-3.7-.1-4.5-.9-.8-.8-1.2-2.3-1.2-4.5v-13.8c0-2.2.4-3.7 1.2-4.5.8-.8 2.3-1.2 4.5-1.2Zm98.96 77.7c0-14.8 2.2-27.8 6.6-39 4.6-11.2 10.7-20 18.3-26.4 15.2-12.2 33.1-18.3 53.7-18.3s37.9 6.5 51.9 19.5c14.2 13 21.3 33.5 21.3 61.5s-7.2 48.7-21.6 62.1c-14.4 13.2-33 19.8-55.8 19.8-22.8 0-40.9-6.7-54.3-20.1-13.4-13.6-20.1-33.3-20.1-59.1Zm35.1-.3c0 17 3.2 30.4 9.6 40.2 6.6 9.8 16.9 14.7 30.9 14.7s24.4-4.4 31.2-13.2c7-9 10.5-23.1 10.5-42.3 0-38.4-13.7-57.6-41.1-57.6-27.4 0-41.1 19.4-41.1 58.2Z" fill="#000"/><path d="M231.289 330.69a26.362 26.362 0 0 0-28.682-5.691 26.3 26.3 0 0 0-8.537 5.691l-5.071 5.057-5.071-5.057a26.356 26.356 0 0 0-18.61-7.687 26.356 26.356 0 0 0-18.61 7.687A26.212 26.212 0 0 0 139 349.249a26.212 26.212 0 0 0 7.708 18.559l5.071 5.058 33.689 33.597a5 5 0 0 0 7.061 0l33.689-33.597 5.071-5.058a26.222 26.222 0 0 0 5.707-8.514 26.184 26.184 0 0 0-5.707-28.604Z" fill="#F7081D"/><mask id="a" style="mask-type:alpha" maskUnits="userSpaceOnUse" x="189" y="323" width="50" height="85"><path fill="#D9D9D9" d="M189 323h50v84.916h-50z"/></mask><g mask="url(#a)"><path d="M231.289 330.69a26.362 26.362 0 0 0-28.682-5.691 26.3 26.3 0 0 0-8.537 5.691l-5.071 5.057-5.071-5.057a26.356 26.356 0 0 0-18.61-7.687 26.356 26.356 0 0 0-18.61 7.687A26.212 26.212 0 0 0 139 349.249a26.212 26.212 0 0 0 7.708 18.559l5.071 5.058 33.689 33.597a5 5 0 0 0 7.061 0l33.689-33.597 5.071-5.058a26.222 26.222 0 0 0 5.707-8.514 26.184 26.184 0 0 0-5.707-28.604Z" fill="#DC1021"/></g><path d="M562.395 432.53a94.225 94.225 0 0 0-30.565-20.375 94.417 94.417 0 0 0-72.115 0 94.203 94.203 0 0 0-30.565 20.375l-18.155 18.105-18.154-18.105c-17.669-17.621-41.634-27.521-66.622-27.521-24.989 0-48.954 9.9-66.623 27.521A93.838 93.838 0 0 0 232 498.972a93.834 93.834 0 0 0 27.596 66.442l18.154 18.105 119.122 118.799c7.806 7.785 20.44 7.785 28.246 0l119.123-118.799 18.154-18.105a93.929 93.929 0 0 0 20.43-30.482 93.713 93.713 0 0 0 0-71.92 93.929 93.929 0 0 0-20.43-30.482Z" fill="#F7081D"/><mask id="b" style="mask-type:alpha" maskUnits="userSpaceOnUse" x="411" y="405" width="179" height="304"><path fill="#D9D9D9" d="M411 405h179v304H411z"/></mask><g mask="url(#b)"><path d="M562.395 432.53a94.225 94.225 0 0 0-30.565-20.375 94.417 94.417 0 0 0-72.115 0 94.203 94.203 0 0 0-30.565 20.375l-18.155 18.105-18.154-18.105c-17.669-17.621-41.634-27.521-66.622-27.521-24.989 0-48.954 9.9-66.623 27.521A93.838 93.838 0 0 0 232 498.972a93.834 93.834 0 0 0 27.596 66.442l18.154 18.105 119.122 118.799c7.806 7.785 20.44 7.785 28.246 0l119.123-118.799 18.154-18.105a93.929 93.929 0 0 0 20.43-30.482 93.713 93.713 0 0 0 0-71.92 93.929 93.929 0 0 0-20.43-30.482Z" fill="#DC1021"/></g></svg>

<svg width="822" height="1122" viewBox="0 0 822 1122" fill="none" xmlns="http://www.w3.org/2000/svg">
<rect width="822" height="1122" rx="50" fill="#F1F7EE"/>
<path d="M176.763 1053.4C176.763 1047 177.696 1041.37 179.563 1036.5C181.496 1031.63 184.03 1027.87 187.163 1025.2C193.296 1020 200.23 1017.4 207.963 1017.4C215.763 1017.4 222.763 1019.1 228.963 1022.5C229.83 1022.97 230.263 1023.63 230.263 1024.5V1037.4C230.263 1038.4 229.763 1038.9 228.763 1038.9H223.163C222.163 1038.9 221.696 1038.4 221.763 1037.4L222.063 1030.4C217.93 1027.6 213.23 1026.2 207.963 1026.2C195.163 1026.2 188.763 1034.73 188.763 1051.8C188.763 1057.13 189.396 1061.8 190.663 1065.8C191.93 1069.73 194.163 1073 197.363 1075.6C200.563 1078.2 204.83 1079.5 210.163 1079.5C215.496 1079.5 219.496 1078.43 222.163 1076.3L221.763 1069.3C221.696 1068.3 222.163 1067.8 223.163 1067.8H228.863C229.863 1067.8 230.363 1068.3 230.363 1069.3V1082C230.363 1082.93 230.03 1083.57 229.363 1083.9C223.496 1086.77 216.796 1088.2 209.263 1088.2C198.33 1088.2 190.163 1085.1 184.763 1078.9C179.43 1072.7 176.763 1064.2 176.763 1053.4ZM268.154 1057.3V1053.8C268.154 1049.07 266.82 1046.1 264.154 1044.9C262.887 1044.37 261.054 1044.1 258.654 1044.1C254.12 1044.1 251.387 1046.23 250.454 1050.5C250.254 1051.5 249.754 1052 248.954 1052H242.554C241.487 1052 241.02 1051.5 241.154 1050.5C241.42 1045.63 243.387 1042.07 247.054 1039.8C250.72 1037.53 255.387 1036.4 261.054 1036.4C272.987 1036.4 278.954 1041.87 278.954 1052.8V1079.1H283.254C284.254 1079.1 284.754 1079.6 284.754 1080.6V1085.5C284.754 1086.5 284.254 1087 283.254 1087H271.454C270.587 1087 270.087 1086.5 269.954 1085.5L269.254 1080.9C265.654 1085.77 260.454 1088.2 253.654 1088.2C249.387 1088.2 245.854 1087.1 243.054 1084.9C240.254 1082.63 238.854 1079.03 238.854 1074.1C238.854 1067.63 241.554 1063.2 246.954 1060.8C251.42 1058.73 256.754 1057.6 262.954 1057.4C264.22 1057.4 265.954 1057.37 268.154 1057.3ZM268.354 1071.9V1064.2C261.954 1064.2 258.02 1064.5 256.554 1065.1C255.087 1065.7 253.787 1066.3 252.654 1066.9C250.52 1068.03 249.454 1070.1 249.454 1073.1C249.454 1077.7 252.087 1080 257.354 1080C260.82 1080 263.52 1079.2 265.454 1077.6C267.387 1075.93 268.354 1074.03 268.354 1071.9ZM305.742 1045.7V1070.9C305.742 1074.03 306.142 1076.3 306.942 1077.7C307.742 1079.1 309.242 1079.8 311.442 1079.8C313.642 1079.8 315.775 1079.33 317.842 1078.4C318.575 1078.13 319.108 1078.4 319.442 1079.2L321.242 1083.8C321.308 1084 321.342 1084.3 321.342 1084.7C321.342 1085.03 321.008 1085.4 320.342 1085.8C317.142 1087.4 313.342 1088.2 308.942 1088.2C303.008 1088.2 299.108 1086.67 297.242 1083.6C295.908 1081.6 295.142 1079.67 294.942 1077.8C294.675 1075.27 294.542 1072.6 294.542 1069.8V1045.7H288.842C287.842 1045.7 287.342 1045.2 287.342 1044.2V1039C287.342 1038 287.842 1037.5 288.842 1037.5H294.542V1024C294.542 1023 295.042 1022.5 296.042 1022.5H304.242C305.242 1022.5 305.742 1023 305.742 1024V1037.5H315.842C316.842 1037.5 317.342 1038 317.342 1039V1044.2C317.342 1045.2 316.842 1045.7 315.842 1045.7H305.742ZM349.256 1088.2C341.323 1088.2 335.489 1085.9 331.756 1081.3C328.089 1076.63 326.256 1070.5 326.256 1062.9C326.256 1055.23 328.223 1048.9 332.156 1043.9C336.089 1038.9 341.756 1036.4 349.156 1036.4C352.823 1036.4 355.956 1037.1 358.556 1038.5C361.223 1039.83 363.256 1041.67 364.656 1044C367.323 1048.53 368.656 1053.77 368.656 1059.7C368.656 1062.5 368.523 1064.03 368.256 1064.3C367.989 1064.57 367.489 1064.7 366.756 1064.7H337.356C337.689 1069.5 338.856 1073.23 340.856 1075.9C342.923 1078.5 346.456 1079.8 351.456 1079.8C355.123 1079.8 358.889 1078.93 362.756 1077.2C363.689 1076.73 364.356 1077 364.756 1078L366.656 1082.6C366.989 1083.4 366.689 1084.07 365.756 1084.6C361.356 1087 355.856 1088.2 349.256 1088.2ZM337.356 1057.3H358.156C358.289 1048.97 355.023 1044.8 348.356 1044.8C344.423 1044.8 341.623 1046.07 339.956 1048.6C338.356 1051.07 337.489 1053.97 337.356 1057.3ZM420.682 1045.7V1081.2C420.682 1085.47 420.515 1089.43 420.182 1093.1C419.648 1098.77 417.548 1103.17 413.882 1106.3C410.282 1109.43 405.148 1111 398.482 1111C391.815 1111 386.215 1110 381.682 1108C380.882 1107.67 380.615 1107 380.882 1106L382.682 1100.7C382.948 1099.77 383.615 1099.5 384.682 1099.9C388.748 1101.57 392.848 1102.4 396.982 1102.4C401.182 1102.4 404.315 1101.4 406.382 1099.4C408.448 1097.4 409.482 1093.87 409.482 1088.8V1081C406.548 1085.8 401.815 1088.2 395.282 1088.2C388.748 1088.2 383.748 1086.1 380.282 1081.9C376.882 1077.7 375.182 1071.33 375.182 1062.8C375.182 1054.2 377.182 1047.67 381.182 1043.2C385.248 1038.67 390.315 1036.4 396.382 1036.4C402.515 1036.4 407.448 1038.57 411.182 1042.9L412.182 1039C412.515 1038 413.115 1037.5 413.982 1037.5H426.182C427.182 1037.5 427.682 1038 427.682 1039V1044.2C427.682 1045.2 427.182 1045.7 426.182 1045.7H420.682ZM409.482 1068.3V1050.5C409.215 1050.1 408.782 1049.6 408.182 1049C407.648 1048.4 406.415 1047.63 404.482 1046.7C402.615 1045.7 400.582 1045.2 398.382 1045.2C394.848 1045.2 391.982 1046.53 389.782 1049.2C387.582 1051.8 386.482 1056 386.482 1061.8C386.482 1067.6 387.282 1072.03 388.882 1075.1C390.482 1078.1 393.582 1079.6 398.182 1079.6C401.115 1079.6 403.715 1078.57 405.982 1076.5C408.315 1074.43 409.482 1071.7 409.482 1068.3ZM432.213 1063C432.213 1058 432.98 1053.67 434.513 1050C436.046 1046.33 438.046 1043.57 440.513 1041.7C445.246 1038.17 450.38 1036.4 455.913 1036.4C459.98 1036.4 463.413 1037.03 466.213 1038.3C469.013 1039.57 471.18 1041.03 472.713 1042.7C474.313 1044.37 475.646 1046.77 476.713 1049.9C477.846 1053.03 478.413 1056.7 478.413 1060.9C478.413 1069.83 476.146 1076.63 471.613 1081.3C467.146 1085.9 461.413 1088.2 454.413 1088.2C447.413 1088.2 441.946 1086.1 438.013 1081.9C434.146 1077.63 432.213 1071.33 432.213 1063ZM455.213 1080C459.213 1080 462.113 1078.53 463.913 1075.6C465.78 1072.6 466.713 1068.17 466.713 1062.3C466.713 1056.43 465.78 1052.03 463.913 1049.1C462.113 1046.1 459.146 1044.6 455.013 1044.6C447.346 1044.6 443.513 1050 443.513 1060.8C443.513 1073.6 447.413 1080 455.213 1080ZM501.936 1046.1C503.069 1043.43 504.902 1041.17 507.436 1039.3C509.969 1037.37 512.736 1036.4 515.736 1036.4C518.736 1036.4 521.036 1036.67 522.636 1037.2C523.436 1037.47 523.836 1038.07 523.836 1039V1052.5C523.836 1053.5 523.336 1054 522.336 1054H515.836C514.836 1054 514.369 1053.5 514.436 1052.5L514.836 1046.7C514.502 1046.63 513.936 1046.6 513.136 1046.6C510.069 1046.6 507.536 1047.87 505.536 1050.4C503.536 1052.87 502.536 1056.2 502.536 1060.4V1079.1H513.536C514.536 1079.1 515.036 1079.6 515.036 1080.6V1085.5C515.036 1086.5 514.536 1087 513.536 1087H486.036C485.036 1087 484.536 1086.5 484.536 1085.5V1080.6C484.536 1079.6 485.036 1079.1 486.036 1079.1H491.336V1045.7H485.936C484.936 1045.7 484.436 1045.2 484.436 1044.2V1039C484.436 1038 484.936 1037.5 485.936 1037.5H499.136C500.069 1037.5 500.636 1038 500.836 1039L501.936 1046.1ZM547.653 1079.1H553.953C554.953 1079.1 555.453 1079.6 555.453 1080.6V1085.5C555.453 1086.5 554.953 1087 553.953 1087H530.153C529.153 1087 528.653 1086.5 528.653 1085.5V1080.6C528.653 1079.6 529.153 1079.1 530.153 1079.1C530.153 1079.1 532.253 1079.1 536.453 1079.1V1045.7H531.053C530.053 1045.7 529.553 1045.2 529.553 1044.2V1039C529.553 1038 530.053 1037.5 531.053 1037.5H546.153C547.153 1037.5 547.653 1038 547.653 1039V1079.1ZM535.553 1028.6C534.286 1027.27 533.653 1025.57 533.653 1023.5C533.653 1021.43 534.286 1019.73 535.553 1018.4C536.886 1017 538.619 1016.3 540.753 1016.3C542.953 1016.3 544.686 1017 545.953 1018.4C547.286 1019.73 547.953 1021.43 547.953 1023.5C547.953 1025.57 547.286 1027.27 545.953 1028.6C544.619 1029.93 542.853 1030.6 540.653 1030.6C538.519 1030.6 536.819 1029.93 535.553 1028.6ZM582.947 1088.2C575.014 1088.2 569.181 1085.9 565.447 1081.3C561.781 1076.63 559.947 1070.5 559.947 1062.9C559.947 1055.23 561.914 1048.9 565.847 1043.9C569.781 1038.9 575.447 1036.4 582.847 1036.4C586.514 1036.4 589.647 1037.1 592.247 1038.5C594.914 1039.83 596.947 1041.67 598.347 1044C601.014 1048.53 602.347 1053.77 602.347 1059.7C602.347 1062.5 602.214 1064.03 601.947 1064.3C601.681 1064.57 601.181 1064.7 600.447 1064.7H571.047C571.381 1069.5 572.547 1073.23 574.547 1075.9C576.614 1078.5 580.147 1079.8 585.147 1079.8C588.814 1079.8 592.581 1078.93 596.447 1077.2C597.381 1076.73 598.047 1077 598.447 1078L600.347 1082.6C600.681 1083.4 600.381 1084.07 599.447 1084.6C595.047 1087 589.547 1088.2 582.947 1088.2ZM571.047 1057.3H591.847C591.981 1048.97 588.714 1044.8 582.047 1044.8C578.114 1044.8 575.314 1046.07 573.647 1048.6C572.047 1051.07 571.181 1053.97 571.047 1057.3ZM609.996 1051.8C609.996 1047.4 611.696 1043.73 615.096 1040.8C618.496 1037.87 622.796 1036.4 627.996 1036.4C633.196 1036.4 637.696 1037 641.496 1038.2C642.43 1038.47 642.896 1039.07 642.896 1040V1050.6C642.896 1051.6 642.396 1052.1 641.396 1052.1H635.596C634.53 1052.1 634.096 1051.6 634.296 1050.6L634.796 1045.5C632.796 1044.43 630.596 1043.9 628.196 1043.9C622.863 1043.9 620.196 1045.77 620.196 1049.5C620.196 1051.43 621.063 1052.97 622.796 1054.1C624.53 1055.23 626.63 1056.17 629.096 1056.9C631.563 1057.57 634.03 1058.37 636.496 1059.3C639.03 1060.17 641.163 1061.7 642.896 1063.9C644.63 1066.03 645.496 1068.77 645.496 1072.1C645.496 1077.17 643.73 1081.13 640.196 1084C636.663 1086.8 631.696 1088.2 625.296 1088.2C620.83 1088.2 616.13 1087.53 611.196 1086.2C610.33 1085.93 609.896 1085.3 609.896 1084.3V1073.7C609.896 1072.7 610.396 1072.2 611.396 1072.2H617.196C618.196 1072.2 618.663 1072.7 618.596 1073.7L618.296 1078.9C620.096 1080.23 622.663 1080.9 625.996 1080.9C631.93 1080.9 634.896 1078.8 634.896 1074.6C634.896 1072.47 634.03 1070.8 632.296 1069.6C630.63 1068.33 628.563 1067.37 626.096 1066.7C623.696 1066.03 621.263 1065.3 618.796 1064.5C616.33 1063.63 614.23 1062.17 612.496 1060.1C610.83 1057.97 609.996 1055.2 609.996 1051.8Z" fill="black"/>
<path d="M66.9441 103.7H117.344C119.544 103.7 121.044 104.1 121.844 104.9C122.644 105.7 123.044 107.2 123.044 109.4V233.3H143.744C145.944 233.1 147.444 233.4 148.244 234.2C149.044 235 149.444 236.5 149.444 238.7V251.3C149.444 253.5 149.044 255 148.244 255.8C147.444 256.6 145.944 257 143.744 257H68.7441C66.5441 257 65.0441 256.6 64.2441 255.8C63.4441 255 63.0441 253.5 63.0441 251.3V238.7C63.0441 236.5 63.4441 235 64.2441 234.2C65.0441 233.4 66.5441 233.1 68.7441 233.3H89.4441V127.4L66.9441 128.6C64.7441 128.8 63.2441 128.5 62.4441 127.7C61.6441 126.9 61.2441 125.4 61.2441 123.2V109.4C61.2441 107.2 61.6441 105.7 62.4441 104.9C63.2441 104.1 64.7441 103.7 66.9441 103.7ZM165.904 181.4C165.904 166.6 168.104 153.6 172.504 142.4C177.104 131.2 183.204 122.4 190.804 116C206.004 103.8 223.904 97.7 244.504 97.7C265.104 97.7 282.404 104.2 296.404 117.2C310.604 130.2 317.704 150.7 317.704 178.7C317.704 206.7 310.504 227.4 296.104 240.8C281.704 254 263.104 260.6 240.304 260.6C217.504 260.6 199.404 253.9 186.004 240.5C172.604 226.9 165.904 207.2 165.904 181.4ZM201.004 181.1C201.004 198.1 204.204 211.5 210.604 221.3C217.204 231.1 227.504 236 241.504 236C255.504 236 265.904 231.6 272.704 222.8C279.704 213.8 283.204 199.7 283.204 180.5C283.204 142.1 269.504 122.9 242.104 122.9C214.704 122.9 201.004 142.3 201.004 181.1Z" fill="black"/>
<path d="M231.289 330.69C228.846 328.252 225.944 326.318 222.751 324.999C219.558 323.679 216.136 323 212.679 323C209.223 323 205.801 323.679 202.607 324.999C199.414 326.318 196.513 328.252 194.07 330.69L188.999 335.747L183.928 330.69C178.992 325.768 172.298 323.003 165.318 323.003C158.338 323.003 151.644 325.768 146.708 330.69C141.773 335.612 139 342.288 139 349.249C139 356.21 141.773 362.886 146.708 367.808L151.779 372.866L185.468 406.463C187.42 408.409 190.578 408.409 192.529 406.463L226.218 372.866L231.289 367.808C233.734 365.372 235.673 362.478 236.996 359.294C238.319 356.109 239 352.696 239 349.249C239 345.802 238.319 342.389 236.996 339.205C235.673 336.02 233.734 333.127 231.289 330.69Z" fill="#F7081D"/>
<mask id="mask0_1023_4179" style="mask-type:alpha" maskUnits="userSpaceOnUse" x="189" y="323" width="50" height="85">
<rect x="189" y="323" width="50" height="84.9162" fill="#D9D9D9"/>
</mask>
<g mask="url(#mask0_1023_4179)">
<path d="M231.289 330.69C228.846 328.252 225.944 326.318 222.751 324.999C219.558 323.679 216.136 323 212.679 323C209.223 323 205.801 323.679 202.607 324.999C199.414 326.318 196.513 328.252 194.07 330.69L188.999 335.747L183.928 330.69C178.992 325.768 172.298 323.003 165.318 323.003C158.338 323.003 151.644 325.768 146.708 330.69C141.773 335.612 139 342.288 139 349.249C139 356.21 141.773 362.886 146.708 367.808L151.779 372.866L185.468 406.463C187.42 408.409 190.578 408.409 192.529 406.463L226.218 372.866L231.289 367.808C233.734 365.372 235.673 362.478 236.996 359.294C238.319 356.109 239 352.696 239 349.249C239 345.802 238.319 342.389 236.996 339.205C235.673 336.02 233.734 333.127 231.289 330.69Z" fill="#DC1021"/>
</g>
<path d="M562.395 432.53C553.647 423.802 543.261 416.879 531.83 412.155C520.398 407.431 508.146 405 495.772 405C483.398 405 471.146 407.431 459.715 412.155C448.283 416.879 437.897 423.802 429.15 432.53L410.995 450.635L392.841 432.53C375.172 414.909 351.207 405.009 326.219 405.009C301.23 405.009 277.265 414.909 259.596 432.53C241.927 450.152 232 474.052 232 498.972C232 523.893 241.927 547.793 259.596 565.414L277.75 583.519L396.872 702.318C404.678 710.103 417.312 710.103 425.118 702.318L544.241 583.519L562.395 565.414C571.146 556.69 578.089 546.332 582.825 534.932C587.562 523.532 590 511.312 590 498.972C590 486.632 587.562 474.413 582.825 463.012C578.089 451.612 571.146 441.254 562.395 432.53Z" fill="#F7081D"/>
<mask id="mask1_1023_4179" style="mask-type:alpha" maskUnits="userSpaceOnUse" x="411" y="405" width="179" height="304">
<rect x="411" y="405" width="179" height="304" fill="#D9D9D9"/>
</mask>
<g mask="url(#mask1_1023_4179)">
<path d="M562.395 432.53C553.647 423.802 543.261 416.879 531.83 412.155C520.398 407.431 508.146 405 495.772 405C483.398 405 471.146 407.431 459.715 412.155C448.283 416.879 437.897 423.802 429.15 432.53L410.995 450.635L392.841 432.53C375.172 414.909 351.207 405.009 326.219 405.009C301.23 405.009 277.265 414.909 259.596 432.53C241.927 450.152 232 474.052 232 498.972C232 523.893 241.927 547.793 259.596 565.414L277.75 583.519L396.872 702.318C404.678 710.103 417.312 710.103 425.118 702.318L544.241 583.519L562.395 565.414C571.146 556.69 578.089 546.332 582.825 534.932C587.562 523.532 590 511.312 590 498.972C590 486.632 587.562 474.413 582.825 463.012C578.089 451.612 571.146 441.254 562.395 432.53Z" fill="#DC1021"/>
</g>
</svg>
